Origami/32x32/apps/moserial.svg

<svg width="32" height="32" version="1" xmlns="http://www.w3.org/2000/svg">
 <rect x="6" y="28" width="20" height="3" style="opacity:.2"/>
 <path d="m13 18h6l3 12h-12z" style="fill:#4f4f4f"/>
 <path transform="matrix(.17315235 .29990866 -.34630469 .1999391 21.956326 -.16033844)" d="m23.723231 13.979746 3.032011 5.251599 3.032012 5.251599h-6.064024-6.064024l3.032012-5.251599z" style="fill:#9c9c9c"/>
 <path d="m23.469572 20.706164c-4.613279 2.663478-10.512258 1.082851-13.175736-3.530428-2.6634773-4.61328-1.0828511-10.512259 3.530428-13.175737z" style="opacity:.2"/>
 <path d="m23.469572 19.706164c-4.613279 2.663478-10.512258 1.082851-13.175736-3.530428-2.6634773-4.61328-1.0828511-10.512258 3.530428-13.175736z" style="fill:#686868"/>
 <circle transform="matrix(.5 .8660254 -.8660254 .5 0 0)" cx="19.843" cy="-13.37" r="1.5" style="opacity:.2"/>
 <circle transform="matrix(.5 .8660254 -.8660254 .5 0 0)" cx="18.977" cy="-13.87" r="1.5" style="fill:#cccccc"/>
 <rect x="6" y="27" width="20" height="3" style="fill:#4f4f4f"/>
 <path d="m13.824219 3c-3.240379 1.8708338-4.9765655 5.337351-4.8046878 8.833984 0.1724545-3.1442471 1.8741358-6.1420293 4.8046878-7.833984l9.199219 15.935547c0.148647-0.075926 0.299104-0.144102 0.445312-0.228516l-9.644531-16.707031z" style="fill:#ffffff;opacity:.1"/>
</svg>

<svg xmlns="http://www.w3.org/2000/svg" width="32" height="32" version="1">
 <rect style="opacity:0.2" width="20" height="3" x="6" y="28"/>
 <path style="fill:#4f4f4f" d="m 13,18 6,0 3,12 -12,0 z"/>
 <path style="fill:#9c9c9c" d="m 23.723231,13.979746 3.032011,5.251599 3.032012,5.251599 -6.064024,0 -6.064024,0 3.032012,-5.251599 z" transform="matrix(0.17315235,0.29990866,-0.34630469,0.1999391,21.956326,-0.16033844)"/>
 <path style="opacity:0.2" d="M 23.469572,20.706164 C 18.856293,23.369642 12.957314,21.789015 10.293836,17.175736 7.6303587,12.562456 9.2109849,6.6634772 13.824264,3.9999991 Z"/>
 <path style="fill:#686868" d="M 23.469572,19.706164 C 18.856293,22.369642 12.957314,20.789015 10.293836,16.175736 7.6303587,11.562456 9.2109849,5.6634777 13.824264,2.9999996 Z"/>
 <circle style="opacity:0.2" cx="19.843" cy="-13.37" r="1.5" transform="matrix(0.5,0.8660254,-0.8660254,0.5,0,0)"/>
 <circle style="fill:#cccccc" cx="18.977" cy="-13.87" r="1.5" transform="matrix(0.5,0.8660254,-0.8660254,0.5,0,0)"/>
 <rect style="fill:#4f4f4f" width="20" height="3" x="6" y="27"/>
 <path style="opacity:0.1;fill:#ffffff" d="M 13.824219 3 C 10.58384 4.8708338 8.8476535 8.337351 9.0195312 11.833984 C 9.1919857 8.6897369 10.893667 5.6919547 13.824219 4 L 23.023438 19.935547 C 23.172085 19.859621 23.322542 19.791445 23.46875 19.707031 L 13.824219 3 z"/>
</svg>
